X:1
T:Title
%%score { 1 | ( 2 3 ) }
L:1/8
M:6/8
K:Ab
V:1 treble nm="Grand Piano"
V:2 bass 
V:3 bass 
V:1
 z3 z2[Q:1/4=81] [CE] | [CE][Ec][Ec] [Ec][DB][CA] | [DF][EG][FA] [CE]2 [CE] | [CE][EA]B ccc | %4
 edc B2 E | [CE][Ec][Ec] [Ec][DB][CA] | [DF][EG][FA] [CE]2 [CE] |[M:13/16] [CE][EA]Bc[_Ge]3/2[Fd] | %8
[M:3/4] [Ec][CEA] [DEB] [CEA]3 | B>B B B2 G | GF E [CA]3 | c>c cc BA | A[=DB] [Dc] [EB]2 [_DE] | %13
 [CE][EA] B c2 A |[M:7/8] ABc [Fd]3 [DF] |[M:13/16] [CE][EA][EB][Ec][_Ge]3/2[Fd] | %16
[M:5/8] [Ec][CEA][DEB] [CEA]2 |] %17
V:2
 z3 z2 [A,,A,] | [A,,A,][A,,A,][A,,A,] [A,,A,][A,,A,][A,,A,] | %2
 [D,A,][D,A,][D,A,] [A,,A,]2 [A,,A,] | [A,,A,][C,A,][E,G,E] [A,E][A,E][A,E] | %4
 [A,CE][G,B,E][A,E] [E,G,E]2 [E,G,D] | [A,,A,][A,,A,][A,,A,] [A,,A,][A,,A,][A,,A,] | %6
 [D,A,][D,A,][D,A,] [A,,A,]2 [A,,A,] |[M:13/16] [A,,A,][C,A,][E,G,E][A,E][C,A,]3/2[D,A,] | %8
[M:3/4] [E,A,]E, E, A,,3 | [E,G,E]>[E,G,E] [E,G,E] [E,G,E]2 [E,B,D] | %10
 [E,B,D][E,A,D] [E,G,D] [A,,A,]3 | [A,E]>[A,E] [A,E][A,E] [G,DE][A,CE] | %12
 [B,=D][B,,F,] [B,,A,] [E,G,]2 [E,G,] | [A,,A,][C,A,] [E,G,E][K:treble] [A,E]2 [A,C] | %14
[M:7/8] [A,C][A,DG][A,E_G][K:bass] [D,D]3 [D,A,] |[M:13/16] z/ z/ z/ z/ z A,/-A,-<A, z | %16
[M:5/8] [E,A,]E,E, A,,2 |] %17
V:3
 x6 | x6 | x6 | x6 | x6 | x6 | x6 |[M:13/16] x13/2 |[M:3/4] x6 | x6 | x6 | x6 | x6 | %13
 x3[K:treble] x3 |[M:7/8] x3[K:bass] x4 |[M:13/16] [A,,A,][C,A,][E,G,] z C,3/2[D,A,] |[M:5/8] x5 |] %17

